packages/blockchain-info-components/src/Images/img/exchange.svg

<svg fill="none" height="40" viewBox="0 0 40 40" width="40" xmlns="http://www.w3.org/2000/svg"><circle cx="20" cy="20" fill="#e6f8fa" r="20"/><path d="m19.7856 23.2h-8.5374c-1.27934 0-1.97146-1.4987-1.1418-2.4727l11.9877-14.07245c.6515-.76486 1.8976-.19889 1.7504.79501l-2.0805 14.04324c-.1453.9807-.987 1.7069-1.9784 1.7069z" fill="#12a5b2"/><path d="m19.6812 16.8h8.5374c1.2793 0 1.9715 1.4988 1.1418 2.4727l-11.9877 14.0725c-.6515.7648-1.8976.1989-1.7504-.795l2.0805-14.0433c.1453-.9807.987-1.7069 1.9784-1.7069z" fill="#6cd0d9"/></svg>

<svg width="40" height="40" viewBox="0 0 40 40" fill="none" xmlns="http://www.w3.org/2000/svg">
<circle cx="20" cy="20" r="20" fill="#E6F8FA"/>
<path d="M19.7856 23.2H11.2482C9.96886 23.2 9.27674 21.7013 10.1064 20.7273L22.0941 6.65485C22.7456 5.88999 23.9917 6.45596 23.8445 7.44986L21.764 21.4931C21.6187 22.4738 20.777 23.2 19.7856 23.2Z" fill="#12A5B2"/>
<path d="M19.6812 16.8L28.2186 16.8C29.4979 16.8 30.1901 18.2988 29.3604 19.2727L17.3727 33.3452C16.7212 34.11 15.4751 33.5441 15.6223 32.5502L17.7028 18.5069C17.8481 17.5262 18.6898 16.8 19.6812 16.8Z" fill="#6CD0D9"/>
</svg>
